Papirus/64x64/apps/colorpicker.svg

<svg xmlns="http://www.w3.org/2000/svg" width="64" height="64" version="1">
 <rect width="56" height="56" x="-60" y="-60" rx="3" ry="3" transform="matrix(0,-1,-1,0,0,0)" style="fill:#713a9d"/>
 <path d="m7 4c-1.662 0-3 1.338-3 3v1c0-1.662 1.338-3 3-3h50c1.662 0 3 1.338 3 3v-1c0-1.662-1.338-3-3-3h-50z" style="fill:#ffffff;opacity:0.1"/>
 <path d="m4 57v1c0 1.662 1.338 3 3 3h50c1.662 0 3-1.338 3-3v-1c0 1.662-1.338 3-3 3h-50c-1.662 0-3-1.338-3-3z" style="opacity:0.2"/>
 <path style="opacity:0.5;fill:#ffffff" d="m 30,29 v 6 h 17 c 1.662,0 3,-1.338 3,-3 0,-1.662 -1.338,-3 -3,-3 z m 6,16 v 6 h 11 c 1.662,0 3,-1.338 3,-3 0,-1.662 -1.338,-3 -3,-3 z"/>
 <path style="fill:#f44336" d="M 43,13 H 17 c -1.662,0 -3,1.338 -3,3 0,1.662 1.338,3 3,3 h 26 z"/>
 <path style="fill:#03a9f4" d="M 37,45 H 17 C 15.338,45 14,46.338 14,48 14,49.662 15.338,51 17,51 H 37 Z"/>
 <path style="fill:#4caf50" d="M 28,29 H 17 C 15.338,29 14,30.338 14,32 14,33.662 15.338,35 17,35 H 28 Z"/>
 <path style="opacity:0.2" d="m 50,17 c 0,-3.314 -2.686,-6 -6,-6 -3.314,0 -6,2.686 -6,6 0,3.314 2.686,6 6,6 3.314,0 6,-2.686 6,-6 z"/>
 <path style="opacity:0.2" d="m 42,49 c 0,-3.314 -2.686,-6 -6,-6 -3.314,0 -6,2.686 -6,6 0,3.314 2.686,6 6,6 3.314,0 6,-2.686 6,-6 z"/>
 <path style="opacity:0.2" d="m 36,33 c 0,-3.314 -2.686,-6 -6,-6 -3.314,0 -6,2.686 -6,6 0,3.314 2.686,6 6,6 3.314,0 6,-2.686 6,-6 z"/>
 <path style="fill:#ffffff" d="m 50,16 c 0,-3.314 -2.686,-6 -6,-6 -3.314,0 -6,2.686 -6,6 0,3.314 2.686,6 6,6 3.314,0 6,-2.686 6,-6 z"/>
 <path style="fill:#ffffff" d="m 42,48 c 0,-3.314 -2.686,-6 -6,-6 -3.314,0 -6,2.686 -6,6 0,3.314 2.686,6 6,6 3.314,0 6,-2.686 6,-6 z"/>
 <path style="fill:#ffffff" d="m 36,32 c 0,-3.314 -2.686,-6 -6,-6 -3.314,0 -6,2.686 -6,6 0,3.314 2.686,6 6,6 3.314,0 6,-2.686 6,-6 z"/>
</svg>

<svg xmlns="http://www.w3.org/2000/svg" width="64" height="64" version="1">
 <rect width="56" height="56" x="-60" y="-60" rx="3" ry="3" transform="matrix(0,-1,-1,0,0,0)" style="fill:#7327b0"/>
 <path d="m7 4c-1.662 0-3 1.338-3 3v1c0-1.662 1.338-3 3-3h50c1.662 0 3 1.338 3 3v-1c0-1.662-1.338-3-3-3h-50z" style="fill:#ffffff;opacity:0.2"/>
 <path d="m4 57v1c0 1.662 1.338 3 3 3h50c1.662 0 3-1.338 3-3v-1c0 1.662-1.338 3-3 3h-50c-1.662 0-3-1.338-3-3z" style="opacity:0.2"/>
 <path d="M 50,16 C 50,14.338 48.662,13 47,13 L 17,13 C 15.338,13 14,14.338 14,16 14,17.662 15.338,19 17,19 L 47,19 C 48.662,19 50,17.662 50,16 Z M 50,32 C 50,30.338 48.662,29 47,29 L 17,29 C 15.338,29 14,30.338 14,32 14,33.662 15.338,35 17,35 H 47 C 48.662,35 50,33.662 50,32 Z M 50,48 C 50,46.338 48.662,45 47,45 H 17 C 15.338,45 14,46.338 14,48 14,49.662 15.338,51 17,51 H 47 C 48.662,51 50,49.662 50,48 Z" style="opacity:0.5;fill:#ffffff"/>
 <path style="fill:#f44336" d="M 37,13 H 17 C 15.338,13 14,14.338 14,16 14,17.662 15.338,19 17,19 H 37 Z"/>
 <path style="fill:#03a9f4" d="M 37,45 H 17 C 15.338,45 14,46.338 14,48 14,49.662 15.338,51 17,51 H 37 Z"/>
 <path style="fill:#4caf50" d="M 28,29 H 17 C 15.338,29 14,30.338 14,32 14,33.662 15.338,35 17,35 H 28 Z"/>
 <path d="M 43,17 C 43,13.686 40.314,11 37,11 33.686,11 31,13.686 31,17 31,20.314 33.686,23 37,23 40.314,23 43,20.314 43,17 Z M 42,49 C 42,45.686 39.314,43 36,43 32.686,43 30,45.686 30,49 30,52.314 32.686,55 36,55 39.314,55 42,52.314 42,49 Z M 36,33 C 36,29.686 33.314,27 30,27 26.686,27 24,29.686 24,33 24,36.314 26.686,39 30,39 33.314,39 36,36.314 36,33 Z" style="opacity:0.2"/>
 <path d="M 43,16 C 43,12.686 40.314,10 37,10 33.686,10 31,12.686 31,16 31,19.314 33.686,22 37,22 40.314,22 43,19.314 43,16 Z M 42,48 C 42,44.686 39.314,42 36,42 32.686,42 30,44.686 30,48 30,51.314 32.686,54 36,54 39.314,54 42,51.314 42,48 Z M 36,32 C 36,28.686 33.314,26 30,26 26.686,26 24,28.686 24,32 24,35.314 26.686,38 30,38 33.314,38 36,35.314 36,32 Z" style="fill:#ffffff"/>
</svg>
